Adwaita++/apps/16/user-info.svg

<svg height="16" width="16" xmlns="http://www.w3.org/2000/svg">
  <g fill="#474747">
    <path d="m6 0a3 3 0 1 0 0 6 3 3 0 0 0 0-6zm-1.5 7a4.49 4.49 0 0 0 -4.5 4.5v.5c0 1 1 1 1 1h6v-4.125c0-.83.587-1.554 1.355-1.79a4.532 4.532 0 0 0 -.855-.085zm4.5 2v4h1v-4z"/>
    <path d="m8.875 8a.863.863 0 0 0 -.875.875v6.25c0 .492.383.875.875.875h6.25a.863.863 0 0 0 .875-.875v-6.25a.863.863 0 0 0 -.875-.875zm2.125 1h2v1h-2zm0 2h2v4h-2z"/>
  </g>
</svg>

<svg xmlns="http://www.w3.org/2000/svg" width="16" height="16">
    <g color="#bebebe" fill="#2e3436">
        <path d="M6 0a3 3 0 1 0 0 6 3 3 0 0 0 0-6zM4.5 7A4.49 4.49 0 0 0 0 11.5v.5c0 1 1 1 1 1h6V8.875c0-.83.587-1.554 1.355-1.79A4.532 4.532 0 0 0 7.5 7zM9 9v4h1V9z" style="marker:none" overflow="visible"/>
        <path d="M8.875 8A.863.863 0 0 0 8 8.875v6.25c0 .492.383.875.875.875h6.25a.863.863 0 0 0 .875-.875v-6.25A.863.863 0 0 0 15.125 8zM11 9h2v1h-2zm0 2h2v4h-2z" style="marker:none" overflow="visible"/>
    </g>
</svg>
